X:1
T:Title
%%score { ( 1 3 ) | ( 2 4 ) }
L:1/8
M:6/8
K:Ab
V:1 treble nm="Grand Piano"
V:3 treble 
V:2 bass 
V:4 bass 
V:1
 z3 z2[Q:1/4=100] [CE] | [Ec]>[Ec][Ec] [Ec][DEB][CEA] | [A,CE][A,CA][A,EA] [B,DA][B,DG][G,DE] | %3
 [Gd]>[Fd][Ed] [Gd][Gc][GB] | BAB c2 [CE] | [Ec]>[Ec][Ec] [Ec][EB][EA] | [EA]Bc [Fe]<[Fd][Fd] | %7
 c>BA F2 [Fd] |[M:5/8] [Ec][CEA][DEB] [CEA]2 |[M:1/8] [G,E] |[M:3/4] B4 z2 | [Ec]3 [CA]2 [E,E] | %12
 d4 z2 |[M:5/8] [Ec]-[Ec]- [Ec]3 |[M:1/8] c/d/ |[M:3/4] e4 z2 | [FA]3 F2 F | %17
 EE EE EE[Q:1/4=99][Q:1/4=97][Q:1/4=96][Q:1/4=94][Q:1/4=93][Q:1/4=91] | %18
[M:5/8] [CE]-[CE]- [CE]3[Q:1/4=90][Q:1/4=88][Q:1/4=87][Q:1/4=85][Q:1/4=84][Q:1/4=82][Q:1/4=81][Q:1/4=79][Q:1/4=78][Q:1/4=76] |] %19
V:2
 z3 z2 [A,,A,] | [A,,A,]>[A,,A,][A,,A,] [A,,A,]A,,A,, | A,,A,,C, E,E,E, | %3
 [E,B,]>[E,A,][E,G,] [E,B,][E,E][E,D] | [E,DE][E,C][E,G,E] [A,E]2 [A,,A,] | %5
 [A,,A,]>[A,,A,][A,,A,] [A,,A,][B,,G,][C,A,] | [C,A,][E,G,E][A,_G] [D,A,]<[D,A,][D,A,] | %7
 [A,E]>[A,D][A,C] [D,A,D]2 [D,A,] |[M:5/8] [E,A,]E,E, A,,2 |[M:1/8] E, | %10
[M:3/4] z A, G,E, [E,A,][E,G,] | [A,,A,]3 .[A,,E,]3 | B,A, G,[E,B,] [E,A,][E,G,] | %13
[M:5/8] [A,,A,]-[A,,A,]- [A,,A,]3 |[M:1/8] [A,E] | %15
[M:3/4][K:treble] [A,CA][B,D] [CE][A,C_G] [A,EG][K:bass][C,A,] | [D,A,]3 [D,A,D]2 [D,A,D] | %17
 [E,A,C][E,G,B,] [E,A,C][E,B,D] [E,A,C][E,G,B,] |[M:5/8] [A,,A,]-[A,,A,]- [A,,A,]3 |] %19
V:3
 x6 | x6 | x6 | x6 | x6 | x6 | x6 | x6 |[M:5/8] x5 |[M:1/8] x |[M:3/4] [B,G]F E[B,GB] [FB][EB] | %11
 x6 | GF E[Gd] [Fd][Ed] |[M:5/8] x5 |[M:1/8] x |[M:3/4] z G _Ge c[GB] | x6 | x6 |[M:5/8] x5 |] %19
V:4
 x6 | x6 | x6 | x6 | x6 | x6 | x6 | x6 |[M:5/8] x5 |[M:1/8] x |[M:3/4] E,4 z2 | x6 | E,4 z2 | %13
[M:5/8] x5 |[M:1/8] z/ B,/ |[M:3/4][K:treble] x5[K:bass] x | x6 | x6 |[M:5/8] x5 |] %19

